svgs/bgram.svg

<svg width="192" height="192" viewBox="0 0 192 192" fill="none" xmlns="http://www.w3.org/2000/svg"><g clip-path="url(#a)"><path d="M66.88 125.728 48.482 107.33c6.3-6.301 20.152-13.44 30.158-16.725 4.08-1.34 7.588-3.271 9.03-7.317 2.664-7.472-4.132-14.45-12.03-13.702-17.314 1.64-41.961 3.031-61.654 1.277C39.94 51.917 95.79 17.969 111.56 33.738c7.885 7.885 6.571 14.456 5.257 23.655 8.787-4.545 29.568-9.856 36.796-2.629-10.514 5.257-15.77 10.514-18.398 21.027 9.199-1.314 15.769-2.629 23.654 5.256 15.77 15.77-18.179 71.621-37.124 97.575-1.755-19.693-.364-44.34 1.276-61.655.748-7.897-6.229-14.694-13.701-12.03-4.047 1.442-5.977 4.949-7.317 9.031-3.286 10.005-10.425 23.857-16.725 30.158L66.88 125.728Z" stroke="#000" stroke-width="12" stroke-linecap="round" stroke-linejoin="round"/></g><defs><clipPath id="a"><path fill="#fff" d="M0 0h192v192H0z"/></clipPath></defs></svg>

<svg id="vector" xmlns="http://www.w3.org/2000/svg" width="192" height="192" viewBox="0 0 192 192"><defs><clipPath id="clip_path_0"><path d="M0,0h192v192h-192z"/></clipPath></defs><g id="g_0"><path fill="#00000000" d="M66.88,125.728L48.482,107.33C54.782,101.029 68.634,93.89 78.64,90.605C82.721,89.265 86.228,87.334 87.671,83.288C90.334,75.816 83.538,68.838 75.64,69.586C58.326,71.226 33.679,72.617 13.986,70.863C39.94,51.917 95.791,17.969 111.56,33.738C119.445,41.623 118.131,48.194 116.817,57.393C125.604,52.848 146.385,47.537 153.613,54.764C143.099,60.021 137.843,65.277 135.215,75.791C144.414,74.477 150.984,73.162 158.869,81.047C174.639,96.817 140.69,152.668 121.745,178.622C119.99,158.929 121.381,134.282 123.021,116.967C123.769,109.07 116.792,102.273 109.32,104.937C105.273,106.379 103.343,109.886 102.003,113.968C98.717,123.973 91.578,137.825 85.277,144.126L66.88,125.728Z" stroke-linejoin="round" stroke-width="12" stroke="#000000" stroke-linecap="round" clip-path="url(#clip_path_0)"/></g></svg>
